!!!Rep U0120
!!!Isim(Name): Buy-i Vahdet Almışam Busi-Lebi Peymaneden
!!!Yore(Region): Diyrbakır
!!!Makam: Hüseyni
!!!Arizalar(Accidentals): b-2
!!!Usul: 4/4
**kern	**Dcent
*staff1	*.
=1-	=1-
*clefG2	*.
*k[b-]	*.
*M4/4	*.
4ee	0
8ee	0
8gg	0
8ff	0
8ee	0
4dd	0
=2	=2
8.dd	0
16cc	0
8dd	0
8ff	0
8ee	0
8dd	0
16cc	0
16dd	0
16b-	50
16cc	0
=3	=3
!!linebreak:default
4a	0
8a	0
8ff	0
8e	0
8dd	0
16cc	0
16dd	0
16b-	50
16cc	0
=4	=4
4a	0
8a	0
8b-	50
8g	0
8cc	0
4ee	0
=5	=5
16ee	0
16ff	0
16ee	0
16dd	0
8cc	0
8dd	0
8b-	50
8cc	0
4dd	0
=6	=6
!!linebreak:default
8ee	0
4b-	50
8cc	0
16b-	50
16cc	0
16b-	50
16a	0
8g	0
8dd	0
=7	=7
4.a	0
8dd	0
8a	0
8dd	0
4a	0
=8:!	=8:!
*MX/X
16cc	0
16dd	0
16ee	0
16dd	0
4ee;	0
=9	=9
!!linebreak:default
8gg	0
16gg	0
16ff	0
4ee	0
8gg	0
16ff	0
16ee	0
4dd	0
=10	=10
16ee	0
16ff	0
8dd	0
8dd	0
ddq	0
8cc	0
4dd	0
4r	0
=11!:	=11!:
8.cc	0
16a	0
8b-	50
8cc	0
16dd	0
16ee	0
16dd	0
16cc	0
16dd	0
16cc	0
8dd	0
=12	=12
!!linebreak:default
8.cc	0
16d	0
16b-	50
16a	0
16b-	50
16cc	0
4dd	0
4r	.
=13:!	=13:!
8.cc	0
16a	0
16b-	50
16a	0
16b-	50
16cc	0
4a	0
16gg	0
16gg	0
8gg;	0
=13	=13
!!linebreak:default
16dd	0
16ee	0
16ff#	0
16gg	0
4aa	0
16aa	0
16gg	0
16ff#	0
16ee	0
8dd	0
16ff#	0
16gg	0
=16	=16
4aa	0
16aa	0
16bb-	50
16aa	0
16gg	0
16gg	0
16aa	0
16gg	0
16ff#	0
16ff#	0
16gg	0
16ff#	0
16ee	0
=17	=17
!!linebreak:default
8r	.
16ee	0
16ff#	0
16gg	0
16aa	0
16gg	0
16ff#	0
16ff#	0
16gg	0
16ff#	0
16ee	0
16ee	0
16ffn	0
16ee	0
16dd	0
=18	=18
8r	.
16cc	0
16dd	0
16ee	0
16ff	0
16ee	0
16dd	0
16dd	0
16ee	0
16dd	0
16cc	0
16cc	0
16dd	0
16cc	0
16b-	50
=19	=19
!!linebreak:default
8r	.
16b-	50
16cc	0
16dd	0
16ee	0
16dd	0
16cc	0
16cc	0
16dd	0
16cc	0
16b-	50
16b-	50
16cc	0
16b-	50
16a	0
=20	=20
8r	.
16a	0
16b-	50
16cc	0
16dd	0
16cc	0
16b-	50
16cc	0
16b-	50
16b-	50
16a	0
4a	0
=21	=21
16cc	0
16bb-	50
16aa	0
16aa	0
4aa;	0
*-	*-
!! Uzun Hava Humdrum Bilgi Bankasi (Uzun Hava Humdrum Database)
!! 
!! Sertan Senturk, Parag Chordia & Erdal Tugcular
!! Georgia Tech Center for Music Technology, 2011
